X:178
T: WENN ICH DEN WANDRER FRAGE
N: B0665
O: Europa, Mitteleuropa, Deutschland
R: Wander -, Moral - Lied, Vergaenglichkeit
M: 4/4
L: 1/8
K: D
F2 | F3ED2F2 | B2A2z2
A2 | A4c3d | e6
A2 | A4F2d2 | d4B2
B2 | A3AB2A2 | F6
A2 | A4F2d2 | f4d2
B2 | A3AcBAC | D4z2

@@@ Tune index: 2396
